usr/share/icons/biglinux-icons-material/16/actions/markasblank.svg

<svg xmlns="http://www.w3.org/2000/svg" viewBox="0 0 16 16"><path d="M2 2v12h3v-1H3V3h2V2H2zm9 0v1h2v10h-2v1h3V2h-3zm-7 8v2h8v-2h-1v1H5v-1H4z" style="fill:currentColor;fill-opacity:1;stroke:none;color:#dedede"/></svg>

<svg xmlns="http://www.w3.org/2000/svg" viewBox="0 0 16 16">
  <defs id="defs3051">
    <style type="text/css" id="current-color-scheme">
      .ColorScheme-Text {
        color:#363636;
      }
      </style>
  </defs>
 <path style="fill:currentColor;fill-opacity:1;stroke:none" 
       d="M 2 2 L 2 14 L 3 14 L 5 14 L 5 13 L 3 13 L 3 3 L 5 3 L 5 2 L 3 2 L 2 2 z M 11 2 L 11 3 L 13 3 L 13 13 L 11 13 L 11 14 L 13 14 L 14 14 L 14 2 L 13 2 L 11 2 z M 4 10 L 4 11 L 4 12 L 12 12 L 12 11 L 12 10 L 11 10 L 11 11 L 5 11 L 5 10 L 4 10 z "
     class="ColorScheme-Text"
     />
</svg>
